resources/haticons/SVG/table_chart.svg

<!-- Generated by IcoMoon.io -->
<svg version="1.1" xmlns="http://www.w3.org/2000/svg" width="24" height="24" viewBox="0 0 24 24">
<title>table_chart</title>
<path d="M3 18.984v-9h5.016v11.016h-3q-0.797 0-1.406-0.609t-0.609-1.406zM20.016 3q0.797 0 1.383 0.609t0.586 1.406v3h-18.984v-3q0-0.797 0.609-1.406t1.406-0.609h15zM17.016 21v-11.016h4.969v9q0 0.797-0.586 1.406t-1.383 0.609h-3zM9.984 10.031h5.016v10.969h-5.016v-10.969z"></path>
</svg>

<svg xmlns="http://www.w3.org/2000/svg" width="24" height="24"><path d="M3 18.984v-9h5.016V21h-3q-.797 0-1.406-.609t-.609-1.406zM20.016 3q.797 0 1.383.609t.586 1.406v3H3.001v-3q0-.797.609-1.406T5.016 3h15zm-3 18V9.984h4.969v9q0 .797-.586 1.406t-1.383.609h-3zM9.984 10.031H15V21H9.984V10.031z"/></svg>
